lib/brands/icons/linux-mint.svg

<svg xmlns="http://www.w3.org/2000/svg" fill="none" aria-hidden="true" viewBox="0 0 48 48"><g id="linux-mint-Icon"><path id="vector" fill="black" d="M7.95923 29.2311L7.95234 20.8929V18.3959H3.00098V4.49988L23.8807 4.60162L30.4122 4.61603C38.229 4.61603 44.9992 10.728 44.9992 18.8002V43.4151H22.5462C14.7365 43.4151 7.95923 37.2958 7.95923 29.231V29.2311Z" opacity="0.26"/><path id="vector_2" fill="url(#paint0_linear_94_20653)" d="M42 36.9779V19.0818C42 13.1029 36.9271 8.25625 30.668 8.25625H24.1714V8.24183L6.60156 8.16248V14.6921H9.29864C11.1813 14.6921 11.5139 16.0354 11.5139 17.8947L11.5278 29.4385C11.5278 35.4174 16.6007 40.2639 22.8529 40.2639H38.2895C40.2684 40.2639 42.0002 38.9686 42.0002 36.9777L42 36.9779Z"/><path id="vector_3" fill="url(#paint1_linear_94_20653)" d="M40.4676 38.4899C36.5199 35.6782 33.7241 32.4483 31.3689 28.1726C26.7263 19.3084 27.8119 14.908 16.3152 13.8704C12.9975 13.8704 10.7891 13.1115 7.29688 13.1115V14.3684C7.29688 14.3684 8.67691 15.0925 9.88994 15.0925C11.6988 15.0925 12.0127 16.3893 12.0127 18.1757L12.0241 29.2398C12.0241 34.9845 16.9056 39.6403 22.9127 39.6403H37.7367C38.8249 39.6403 39.8024 39.197 40.4676 38.4899V38.4899Z" opacity="0.175"/><path id="vector_4" fill="black" fill-opacity="0.08" d="M26.7292 14.9647C25.3205 14.9647 24.0689 15.5053 23.0632 16.5552C22.0581 17.6048 21.5303 18.9149 21.5303 20.3935V27.8676H24.8101V20.3933C24.8101 19.8266 24.9889 19.3836 25.3805 18.9747C25.7732 18.5647 26.1893 18.379 26.7292 18.379C27.2806 18.379 27.6902 18.5639 28.0839 18.9747C28.4754 19.3834 28.6544 19.8266 28.6544 20.3933V27.8674H31.9341V20.3933C31.9341 19.8266 32.1129 19.3836 32.5045 18.9747C32.8983 18.5637 33.3079 18.379 33.8593 18.379C34.3994 18.379 34.8152 18.5647 35.208 18.9747C35.5994 19.3834 35.7784 19.8266 35.7784 20.3933L35.7963 29.1263C35.7963 30.9893 34.0798 32.5593 31.8747 32.5593L21.2985 32.5164C19.5969 32.5164 18.1434 30.8043 18.1434 28.6043V12.1591H15.042V29.237C15.042 31.049 15.6834 32.638 16.9314 33.9229C17.9981 35.011 19.2808 35.655 20.7222 35.8143V35.8758H32.4986C34.3081 35.8758 35.898 35.1802 37.1807 33.8307H37.1866C38.2774 32.6724 38.9151 31.2843 39.07 29.7221L39.0582 20.3935C39.0582 18.9149 38.5304 17.6048 37.5252 16.5552C36.5196 15.5053 35.2679 14.9647 33.8593 14.9647C32.4765 14.9647 31.2666 15.4961 30.2883 16.4692C29.3129 15.4976 28.1113 14.9647 26.7292 14.9647V14.9647Z"/><path id="vector_5" fill="white" d="M26.4669 15.0538C25.0581 15.0538 23.8064 15.5944 22.8007 16.6443C21.7955 17.6939 21.2677 19.004 21.2677 20.4826V27.9565H24.5476V20.4826C24.5476 19.9159 24.7264 19.4728 25.118 19.064C25.5108 18.654 25.9268 18.4683 26.4669 18.4683C27.0181 18.4683 27.4279 18.6532 27.8215 19.064C28.2131 19.4727 28.3919 19.9159 28.3919 20.4826V27.9565H31.6717V20.4826C31.6717 19.9159 31.8506 19.4728 32.2422 19.064C32.6359 18.653 33.0456 18.4683 33.5969 18.4683C34.137 18.4683 34.5529 18.654 34.9457 19.064C35.3373 19.4727 35.5161 19.9159 35.5161 20.4826L35.534 29.2155C35.534 31.0786 33.8174 32.6486 31.6124 32.6486L21.0359 32.6055C19.3343 32.6055 17.881 30.8936 17.881 28.6936V12.2482H14.7793V29.3261C14.7793 31.1381 15.4208 32.7271 16.6687 34.0119C17.7354 35.1001 19.0184 35.8055 20.4596 35.9649H32.2363C34.0458 35.9649 35.6358 35.2694 36.9184 33.9198H36.9244C38.0153 32.7613 38.6529 31.3734 38.8079 29.8112L38.7961 20.4826C38.7961 19.004 38.2683 17.6938 37.263 16.6443C36.2573 15.5944 35.0055 15.0538 33.5969 15.0538C32.2143 15.0538 31.0044 15.5852 30.0259 16.5583C29.0504 15.5867 27.8489 15.0538 26.4669 15.0538Z"/><path id="vector_6" fill="white" d="M22.7505 42.7424C15.295 42.7424 8.8253 36.9007 8.8253 29.202L8.81873 19.8538V17.4701H4.0918V5.5929L30.2592 5.70362C37.7212 5.70362 44.1842 11.5384 44.1842 19.2441V42.7424H22.7505ZM41.1474 36.439V19.2441C41.1474 13.4996 36.2733 8.84295 30.2593 8.84295L7.13585 8.75274V14.3311H9.02692C10.3108 14.3311 11.8557 15.5781 11.8557 17.408L11.8692 29.195C11.8692 34.9397 16.7433 39.5963 22.7503 39.5963H37.5821C39.4835 39.5963 41.1474 38.3517 41.1474 36.439Z"/></g><defs><linearGradient id="paint0_linear_94_20653" x1="9.98" x2="29.0208" y1="12.2586" y2="32.4595" gradientUnits="userSpaceOnUse"><stop stop-color="#C7F994"/><stop offset="1" stop-color="#87CF3E"/></linearGradient><linearGradient id="paint1_linear_94_20653" x1="13.8683" x2="25.7313" y1="36.9179" y2="18.9214" gradientUnits="userSpaceOnUse"><stop stop-color="#3D3D3D"/><stop offset="1" stop-opacity="0.114"/></linearGradient></defs></svg>

<svg xmlns="http://www.w3.org/2000/svg" fill="none" aria-hidden="true" viewBox="0 0 48 48"><path fill="#000" d="m7.96 29.231-.008-8.338v-2.497H3.001V4.5l20.88.102 6.531.014C38.23 4.616 45 10.728 45 18.8v24.615H22.546c-7.81 0-14.587-6.12-14.587-14.184Z" opacity=".26"/><path fill="url(#a)" d="M42 36.978V19.082c0-5.98-5.073-10.826-11.332-10.826h-6.497v-.014l-17.57-.08v6.53H9.3c1.882 0 2.215 1.343 2.215 3.203l.014 11.544c0 5.978 5.073 10.825 11.325 10.825H38.29c1.98 0 3.711-1.295 3.711-3.286Z"/><path fill="url(#b)" d="M40.468 38.49c-3.948-2.812-6.744-6.042-9.1-10.317-4.642-8.865-3.556-13.265-15.053-14.303-3.318 0-5.526-.758-9.018-.758v1.256s1.38.724 2.593.724c1.809 0 2.123 1.297 2.123 3.084l.011 11.064c0 5.744 4.882 10.4 10.889 10.4h14.824c1.088 0 2.065-.443 2.73-1.15Z" opacity=".175"/><path fill="#000" fill-opacity=".08" d="M26.73 14.965c-1.41 0-2.661.54-3.667 1.59-1.005 1.05-1.533 2.36-1.533 3.838v7.475h3.28v-7.475c0-.566.179-1.01.57-1.418.393-.41.81-.596 1.35-.596.55 0 .96.185 1.354.596.391.408.57.852.57 1.418v7.474h3.28v-7.474c0-.566.179-1.01.57-1.418.394-.411.804-.596 1.355-.596.54 0 .956.186 1.349.596.391.408.57.852.57 1.418l.018 8.733c0 1.863-1.716 3.433-3.921 3.433l-10.576-.043c-1.702 0-3.156-1.712-3.156-3.912V12.16h-3.101v17.078c0 1.812.641 3.401 1.89 4.686 1.066 1.088 2.349 1.732 3.79 1.891v.062H32.5c1.81 0 3.399-.696 4.682-2.045h.006c1.09-1.159 1.728-2.547 1.883-4.109l-.012-9.329c0-1.478-.528-2.788-1.533-3.838-1.005-1.05-2.257-1.59-3.666-1.59-1.383 0-2.592.531-3.57 1.504-.976-.971-2.178-1.504-3.56-1.504Z"/><path fill="#fff" d="M26.467 15.054c-1.409 0-2.66.54-3.666 1.59-1.005 1.05-1.533 2.36-1.533 3.839v7.473h3.28v-7.473c0-.567.178-1.01.57-1.419.393-.41.809-.596 1.349-.596.551 0 .96.185 1.355.596.391.409.57.852.57 1.419v7.473h3.28v-7.473c0-.567.179-1.01.57-1.419.394-.411.804-.596 1.355-.596.54 0 .956.186 1.349.596.391.409.57.852.57 1.419l.018 8.732c0 1.864-1.717 3.434-3.922 3.434l-10.576-.044c-1.702 0-3.155-1.711-3.155-3.911V12.248h-3.102v17.078c0 1.812.642 3.401 1.89 4.686 1.066 1.088 2.35 1.794 3.79 1.953h11.777c1.81 0 3.4-.696 4.682-2.045h.006c1.091-1.159 1.729-2.547 1.884-4.109l-.012-9.328c0-1.479-.528-2.79-1.533-3.839-1.006-1.05-2.258-1.59-3.666-1.59-1.383 0-2.593.531-3.571 1.504-.976-.971-2.177-1.504-3.56-1.504Z"/><path fill="#fff" d="M22.75 42.742c-7.455 0-13.925-5.841-13.925-13.54l-.006-9.348V17.47H4.092V5.593l26.167.11c7.462 0 13.925 5.835 13.925 13.541v23.498H22.751Zm18.397-6.303V19.244c0-5.744-4.874-10.401-10.888-10.401l-23.123-.09v5.578h1.89c1.285 0 2.83 1.247 2.83 3.077l.013 11.787c0 5.745 4.874 10.401 10.881 10.401h14.832c1.901 0 3.565-1.244 3.565-3.157Z"/><defs><linearGradient id="a" x1="9.98" x2="29.021" y1="12.259" y2="32.459" gradientUnits="userSpaceOnUse"><stop stop-color="#C7F994"/><stop offset="1" stop-color="#87CF3E"/></linearGradient><linearGradient id="b" x1="13.868" x2="25.731" y1="36.918" y2="18.921" gradientUnits="userSpaceOnUse"><stop stop-color="#3D3D3D"/><stop offset="1" stop-opacity=".114"/></linearGradient></defs></svg>
